symbols-de/shields/motorway_6x1.svg

<?xml version="1.0" encoding="UTF-8" standalone="no"?>
<svg
   xmlns:dc="http://purl.org/dc/elements/1.1/"
   xmlns:cc="http://creativecommons.org/ns#"
   xmlns:rdf="http://www.w3.org/1999/02/22-rdf-syntax-ns#"
   xmlns:svg="http://www.w3.org/2000/svg"
   xmlns="http://www.w3.org/2000/svg"
   xmlns:sodipodi="http://sodipodi.sourceforge.net/DTD/sodipodi-0.dtd"
   xmlns:inkscape="http://www.inkscape.org/namespaces/inkscape"
   width="100%"
   height="100%"
   viewBox="0 0 45.0 15.0"
   id="svg2"
   version="1.1"
   inkscape:version="0.91 r13725"
   sodipodi:docname="autobahn_6x1.svg">
  <metadata
     id="metadata9">
    <rdf:RDF>
      <cc:Work
         rdf:about="">
        <dc:format>image/svg+xml</dc:format>
        <dc:type
           rdf:resource="http://purl.org/dc/dcmitype/StillImage" />
        <dc:title></dc:title>
      </cc:Work>
    </rdf:RDF>
  </metadata>
  <defs
     id="defs7" />
  <sodipodi:namedview
     pagecolor="#ffffff"
     bordercolor="#666666"
     borderopacity="1"
     objecttolerance="10"
     gridtolerance="10"
     guidetolerance="10"
     inkscape:pageopacity="0"
     inkscape:pageshadow="2"
     inkscape:window-width="1171"
     inkscape:window-height="817"
     id="namedview5"
     showgrid="false"
     inkscape:zoom="7.8444444"
     inkscape:cx="22.5"
     inkscape:cy="7.5"
     inkscape:window-x="583"
     inkscape:window-y="97"
     inkscape:window-maximized="0"
     inkscape:current-layer="svg2" />
  <path
     d="m 0.4985331,7.5014031 0,-4.8364371 q 0,-0.254552 0.7096783,-0.3818228 L 22.025475,0.51402905 q 0,-0.0126893 0.473118,-0.0126893 0.473118,0 0.473118,0.0126893 L 43.788978,2.2831432 q 0.709681,0.1272708 0.709681,0.3818228 l 0,9.672878 q 0,0.254552 -0.709681,0.381823 l -20.817267,1.769111 q 0,0.01269 -0.473118,0.01269 -0.473118,0 -0.473118,-0.01269 L 1.2082114,12.719667 Q 0.4985331,12.592396 0.4985331,12.337844 Z"
     id="path6"
     style="fill:#365eaf;fill-opacity:1;stroke:#0528a2;stroke-width:1;stroke-miterlimit:4;stroke-dasharray:none;stroke-opacity:1"
     inkscape:connector-curvature="0" />
</svg>

<?xml version="1.0" encoding="UTF-8"?>
<svg xmlns="http://www.w3.org/2000/svg" xmlns:xlink="http://www.w3.org/1999/xlink" width="47pt" height="18pt" viewBox="0 0 47 18" version="1.1">
<g id="surface1">
<path style="fill-rule:nonzero;fill:rgb(21.176471%,36.862745%,68.627451%);fill-opacity:1;stroke-width:1;stroke-linecap:butt;stroke-linejoin:miter;stroke:rgb(1.960784%,15.686275%,63.529412%);stroke-opacity:1;stroke-miterlimit:4;" d="M 0.497424 7.5 L 0.497424 2.666016 C 0.497424 2.496745 0.736785 2.366536 1.208029 2.281901 L 22.025017 0.514323 C 22.025017 0.504557 22.182098 0.501302 22.5 0.501302 C 22.814162 0.501302 22.971243 0.504557 22.971243 0.514323 L 43.788231 2.281901 C 44.263215 2.366536 44.498836 2.496745 44.498836 2.666016 L 44.498836 12.33724 C 44.498836 12.50651 44.263215 12.633464 43.788231 12.718099 L 22.971243 14.488932 C 22.971243 14.498698 22.814162 14.501953 22.5 14.501953 C 22.182098 14.501953 22.025017 14.498698 22.025017 14.488932 L 1.208029 12.718099 C 0.736785 12.633464 0.497424 12.50651 0.497424 12.33724 Z M 0.497424 7.5 " transform="matrix(1.044444,0,0,1.2,0,0)"/>
</g>
</svg>
